www/assets/icons/view_array.svg

<svg xmlns="http://www.w3.org/2000/svg" width="24" height="24" viewBox="0 0 24 24" fill='currentColor'><path d="M21 5h-3v14h3zm-4 0H7v14h10zM6 5H3v14h3z"/></svg>

<svg width="24" height="24" viewBox="0 0 24 24" xmlns="http://www.w3.org/2000/svg" fill='currentColor'><path d="M21 5H18V19H21V5ZM17 5H7V19H17V5ZM6 5H3V19H6V5Z"/></svg>
